Sources/FrostedUI/Resources/Icons.xcassets/facebook32.imageset/facebook-32.svg

<svg width="32" height="32" viewBox="0 0 32 32" fill="none" xmlns="http://www.w3.org/2000/svg" data-fui-icon="true">
  <path
    d="M16 1.91699C23.7777 1.91719 30.0838 8.22235 30.084 16C30.0838 23.1998 24.6803 29.1365 17.707 29.9814L16.8672 30.084V19.3242H20.5977L21.0693 16.75H16.8613V14.5596C16.8613 13.4127 17.0804 12.4138 17.7803 11.7256C18.4769 11.0409 19.4833 10.8281 20.6406 10.8281C20.9242 10.8281 21.1912 10.833 21.4316 10.8389V8.54688C20.7897 8.4434 19.8776 8.35458 19.2861 8.35449C17.1643 8.35449 15.7715 8.85578 14.8984 9.74707C14.0222 10.6419 13.5293 12.0729 13.5293 14.2451V16.75H10.7773V19.3252H13.5293V29.9004L12.5986 29.6699C6.46428 28.148 1.91715 22.6058 1.91699 16C1.91717 8.22234 8.22234 1.91717 16 1.91699ZM16 3.41699C9.05077 3.41717 3.41717 9.05076 3.41699 16C3.41714 21.561 7.02538 26.2795 12.0293 27.9424V20.8252H9.27734V15.25H12.0293V14.2451C12.0293 11.879 12.5626 9.9888 13.8262 8.69824C15.0931 7.40441 16.955 6.85449 19.2861 6.85449C20.1735 6.8546 21.6999 7.02352 22.3818 7.21191L22.9316 7.36426V12.4561L22.1064 12.3721C21.8323 12.3444 21.3155 12.3281 20.6406 12.3281C19.6116 12.3281 19.1025 12.529 18.8311 12.7959C18.563 13.0598 18.3613 13.5522 18.3613 14.5596V15.25H22.8691L22.7061 16.1357L21.96 20.21L21.8467 20.8242H18.3672V28.3584C24.1848 27.2495 28.5838 22.1391 28.584 16C28.5838 9.05078 22.9492 3.41719 16 3.41699Z"
    fill="currentColor"
  />
</svg>

<svg xmlns="http://www.w3.org/2000/svg" width="32" height="32" fill="none" data-fui-icon="true" viewBox="0 0 32 32"><path fill="currentColor" d="M16 1.917c7.778 0 14.084 6.305 14.084 14.083 0 7.2-5.404 13.137-12.377 13.981l-.84.103v-10.76h3.73l.472-2.574h-4.208v-2.19c0-1.147.22-2.146.92-2.834.696-.685 1.702-.898 2.86-.898.283 0 .55.005.79.01V8.548c-.641-.104-1.553-.192-2.145-.193-2.122 0-3.515.502-4.388 1.393-.876.895-1.369 2.326-1.369 4.498v2.505h-2.752v2.575h2.752V29.9l-.93-.23C6.464 28.148 1.917 22.606 1.917 16 1.917 8.222 8.222 1.917 16 1.917m0 1.5C9.05 3.417 3.417 9.051 3.417 16c0 5.561 3.608 10.28 8.612 11.942v-7.117H9.277V15.25h2.752v-1.005c0-2.366.534-4.256 1.797-5.547 1.267-1.294 3.129-1.844 5.46-1.844.887 0 2.414.17 3.096.358l.55.152v5.092l-.826-.084c-.274-.028-.79-.044-1.465-.044-1.03 0-1.538.201-1.81.468-.268.264-.47.756-.47 1.764v.69h4.508l-.163.886-.746 4.074-.113.614h-3.48v7.534C24.185 27.25 28.584 22.14 28.584 16c0-6.95-5.635-12.583-12.584-12.583"/></svg>
